X:114
T: "Cigányok vajdája"
M: 2/4
L: 1/8
K: F
defe | defe | dd2e | ddd2 | 
cded | cded | cc2d | ccc2 | 
d2dc | B2cB | GA2A | AAA2 | 
d2dc | B2cB | GG2G | GGG2 | 

